{
 "compressionlevel": -1,
 "height": 12,
 "width": 64,
 "infinite": false,
 "orientation": "orthogonal",
 "renderorder": "right-down",
 "tilewidth": 32,
 "tileheight": 32,
 "type": "map",
 "version": "1.10",
 "tiledversion": "1.10.2",
 "nextlayerid": 10,
 "nextobjectid": 33,
 "tilesets": [
  {
   "firstgid": 1,
   "source": "../tilesets/house_night/tileset_house_l8.tsj"
  }
 ],
 "layers": [
  {
   "id": 1,
   "name": "bg_sky",
   "type": "imagelayer",
   "image": "../backgrounds/house/bg_house_sky.png",
   "repeatx": true,
   "parallaxx": 0,
   "parallaxy": 1,
   "opacity": 1,
   "visible": true,
   "x": 0,
   "y": 0
  },
  {
   "id": 2,
   "name": "bg_far",
   "type": "imagelayer",
   "image": "../backgrounds/house/bg_house_far.png",
   "repeatx": true,
   "parallaxx": 0.2,
   "parallaxy": 1,
   "opacity": 1,
   "visible": true,
   "x": 0,
   "y": 0
  },
  {
   "id": 3,
   "name": "bg_mid",
   "type": "imagelayer",
   "image": "../backgrounds/house/bg_house_mid.png",
   "repeatx": true,
   "parallaxx": 0.45,
   "parallaxy": 1,
   "opacity": 1,
   "visible": true,
   "x": 0,
   "y": 0
  },
  {
   "id": 4,
   "name": "bg_near",
   "type": "imagelayer",
   "image": "../backgrounds/house/bg_house_near.png",
   "repeatx": true,
   "parallaxx": 0.7,
   "parallaxy": 1,
   "opacity": 1,
   "visible": true,
   "x": 0,
   "y": 0
  },
  {
   "id": 5,
   "name": "decor_back",
   "type": "tilelayer",
   "width": 64,
   "height": 12,
   "x": 0,
   "y": 0,
   "opacity": 1,
   "visible": true,
   "data": [
    0,
    0,
    0,
    0,
    0,
    0,
    0,
    0,
    0,
    0,
    0,
    0,
    0,
    0,
    0,
    0,
    0,
    0,
    0,
    0,
    0,
    0,
    0,
    0,
    0,
    0,
    0,
    0,
    0,
    0,
    0,
    0,
    0,
    0,
    0,
    0,
    0,
    0,
    0,
    0,
    0,
    0,
    0,
    0,
    0,
    0,
    0,
    0,
    0,
    0,
    0,
    0,
    0,
    0,
    0,
    0,
    0,
    0,
    0,
    0,
    0,
    0,
    0,
    0,
    0,
    0,
    0,
    0,
    0,
    0,
    0,
    0,
    0,
    0,
    0,
    0,
    0,
    0,
    0,
    0,
    0,
    0,
    0,
    0,
    0,
    0,
    0,
    0,
    0,
    0,
    0,
    0,
    0,
    0,
    0,
    0,
    0,
    0,
    0,
    0,
    0,
    0,
    0,
    0,
    0,
    0,
    0,
    0,
    0,
    0,
    0,
    0,
    0,
    0,
    0,
    0,
    0,
    0,
    0,
    0,
    0,
    0,
    0,
    0,
    0,
    0,
    0,
    0,
    0,
    0,
    0,
    0,
    0,
    0,
    0,
    0,
    0,
    0,
    0,
    0,
    0,
    0,
    0,
    0,
    0,
    0,
    0,
    0,
    0,
    0,
    0,
    0,
    0,
    0,
    0,
    0,
    0,
    0,
    0,
    0,
    0,
    0,
    0,
    0,
    0,
    0,
    0,
    0,
    0,
    0,
    0,
    0,
    0,
    0,
    0,
    0,
    0,
    0,
    0,
    0,
    0,
    0,
    0,
    0,
    0,
    0,
    0,
    0,
    0,
    0,
    0,
    0,
    0,
    0,
    0,
    0,
    0,
    0,
    0,
    0,
    0,
    0,
    0,
    0,
    0,
    0,
    0,
    0,
    0,
    0,
    0,
    0,
    0,
    0,
    0,
    0,
    0,
    0,
    0,
    0,
    0,
    0,
    0,
    0,
    0,
    0,
    0,
    0,
    0,
    0,
    0,
    0,
    0,
    0,
    0,
    0,
    0,
    0,
    0,
    0,
    0,
    0,
    0,
    0,
    0,
    0,
    0,
    0,
    0,
    0,
    0,
    0,
    0,
    0,
    0,
    0,
    20,
    20,
    78,
    78,
    20,
    20,
    20,
    20,
    20,
    20,
    20,
    20,
    20,
    20,
    20,
    20,
    20,
    20,
    20,
    20,
    20,
    20,
    20,
    20,
    20,
    20,
    20,
    20,
    20,
    20,
    20,
    20,
    20,
    20,
    20,
    20,
    20,
    20,
    20,
    20,
    20,
    20,
    20,
    20,
    20,
    20,
    20,
    20,
    20,
    20,
    20,
    20,
    20,
    20,
    20,
    20,
    20,
    20,
    20,
    20,
    20,
    20,
    20,
    20,
    20,
    20,
    20,
    20,
    52,
    53,
    20,
    20,
    20,
    20,
    20,
    20,
    20,
    20,
    20,
    20,
    20,
    20,
    20,
    20,
    20,
    81,
    20,
    20,
    20,
    20,
    20,
    20,
    20,
    20,
    20,
    20,
    20,
    20,
    52,
    53,
    20,
    20,
    20,
    20,
    20,
    20,
    20,
    79,
    20,
    20,
    20,
    20,
    20,
    20,
    20,
    20,
    20,
    20,
    20,
    20,
    20,
    20,
    20,
    20,
    20,
    20,
    88,
    20,
    20,
    20,
    20,
    20,
    54,
    55,
    20,
    20,
    20,
    20,
    20,
    20,
    20,
    20,
    20,
    20,
    20,
    20,
    20,
    20,
    20,
    20,
    20,
    20,
    20,
    20,
    20,
    20,
    20,
    20,
    20,
    20,
    20,
    20,
    54,
    55,
    20,
    20,
    20,
    20,
    20,
    20,
    20,
    20,
    20,
    20,
    20,
    20,
    20,
    20,
    20,
    20,
    20,
    20,
    20,
    20,
    20,
    20,
    20,
    20,
    20,
    20,
    20,
    20,
    20,
    20,
    20,
    20,
    20,
    20,
    20,
    20,
    20,
    20,
    20,
    20,
    20,
    20,
    20,
    20,
    20,
    20,
    20,
    20,
    20,
    20,
    40,
    40,
    40,
    40,
    40,
    20,
    20,
    20,
    20,
    20,
    20,
    20,
    20,
    20,
    20,
    20,
    20,
    20,
    20,
    20,
    20,
    20,
    20,
    20,
    20,
    20,
    20,
    20,
    20,
    20,
    20,
    20,
    20,
    20,
    20,
    40,
    40,
    40,
    40,
    40,
    20,
    20,
    21,
    21,
    21,
    21,
    21,
    21,
    21,
    21,
    21,
    21,
    21,
    21,
    21,
    71,
    71,
    71,
    71,
    71,
    21,
    21,
    21,
    21,
    40,
    40,
    40,
    40,
    40,
    21,
    21,
    21,
    21,
    21,
    21,
    21,
    21,
    21,
    21,
    21,
    21,
    21,
    21,
    21,
    21,
    21,
    71,
    71,
    71,
    71,
    71,
    21,
    21,
    21,
    21,
    21,
    21,
    21,
    21,
    40,
    40,
    40,
    40,
    40,
    21,
    21,
    0,
    0,
    0,
    0,
    0,
    0,
    0,
    0,
    0,
    0,
    0,
    0,
    0,
    0,
    0,
    0,
    0,
    0,
    0,
    0,
    0,
    0,
    0,
    0,
    0,
    0,
    0,
    0,
    0,
    0,
    0,
    0,
    0,
    0,
    0,
    0,
    0,
    0,
    0,
    0,
    0,
    0,
    0,
    0,
    0,
    0,
    0,
    0,
    0,
    0,
    0,
    0,
    0,
    0,
    0,
    0,
    0,
    0,
    0,
    0,
    0,
    0,
    0,
    0,
    0,
    0,
    0,
    0,
    0,
    0,
    0,
    0,
    0,
    0,
    0,
    0,
    0,
    0,
    0,
    0,
    0,
    0,
    0,
    0,
    0,
    0,
    0,
    0,
    0,
    0,
    0,
    0,
    0,
    0,
    0,
    0,
    0,
    0,
    0,
    0,
    0,
    0,
    0,
    0,
    0,
    0,
    0,
    0,
    0,
    0,
    0,
    0,
    0,
    0,
    0,
    0,
    0,
    0,
    0,
    0,
    0,
    0,
    0,
    0,
    0,
    0,
    0,
    0,
    0,
    0,
    0,
    0,
    0,
    0,
    0,
    0,
    0,
    0,
    0,
    0,
    0,
    0,
    0,
    0,
    0,
    0,
    0,
    0,
    0,
    0,
    0,
    0,
    0,
    0,
    0,
    0,
    0,
    0,
    0,
    0,
    0,
    0,
    0,
    0,
    0,
    0,
    0,
    0,
    0,
    0,
    0,
    0,
    0,
    0,
    0,
    0,
    0,
    0,
    0,
    0,
    0,
    0,
    0,
    0,
    0,
    0,
    0,
    0,
    0,
    0,
    0,
    0
   ]
  },
  {
   "id": 6,
   "name": "ground",
   "type": "tilelayer",
   "width": 64,
   "height": 12,
   "x": 0,
   "y": 0,
   "opacity": 1,
   "visible": true,
   "data": [
    10,
    10,
    10,
    10,
    10,
    10,
    10,
    10,
    10,
    10,
    10,
    10,
    10,
    10,
    10,
    10,
    10,
    10,
    10,
    10,
    10,
    10,
    10,
    10,
    10,
    10,
    10,
    10,
    10,
    10,
    10,
    10,
    10,
    10,
    10,
    10,
    10,
    10,
    10,
    10,
    10,
    10,
    10,
    10,
    10,
    10,
    10,
    10,
    10,
    10,
    10,
    10,
    10,
    10,
    10,
    10,
    10,
    10,
    10,
    10,
    10,
    10,
    10,
    10,
    10,
    10,
    10,
    10,
    10,
    10,
    10,
    10,
    10,
    10,
    10,
    10,
    10,
    10,
    10,
    10,
    10,
    10,
    10,
    10,
    10,
    10,
    10,
    10,
    10,
    10,
    10,
    10,
    10,
    10,
    10,
    10,
    10,
    10,
    10,
    10,
    10,
    10,
    10,
    10,
    10,
    10,
    10,
    10,
    10,
    10,
    10,
    10,
    10,
    10,
    10,
    10,
    10,
    10,
    10,
    10,
    10,
    10,
    10,
    10,
    10,
    10,
    10,
    10,
    18,
    18,
    18,
    18,
    18,
    18,
    18,
    18,
    18,
    18,
    18,
    18,
    18,
    18,
    18,
    18,
    18,
    18,
    18,
    18,
    18,
    18,
    18,
    18,
    18,
    18,
    18,
    18,
    18,
    18,
    18,
    18,
    18,
    18,
    18,
    18,
    18,
    18,
    18,
    18,
    18,
    18,
    18,
    18,
    18,
    18,
    18,
    18,
    18,
    18,
    18,
    18,
    18,
    18,
    18,
    18,
    18,
    18,
    18,
    18,
    18,
    18,
    18,
    18,
    24,
    24,
    24,
    24,
    24,
    24,
    24,
    24,
    24,
    24,
    24,
    24,
    24,
    24,
    24,
    24,
    24,
    24,
    24,
    24,
    24,
    24,
    24,
    24,
    24,
    24,
    24,
    24,
    24,
    24,
    24,
    24,
    24,
    24,
    24,
    24,
    24,
    24,
    24,
    24,
    24,
    24,
    24,
    24,
    24,
    24,
    24,
    24,
    24,
    24,
    24,
    24,
    24,
    24,
    24,
    24,
    24,
    24,
    24,
    24,
    24,
    24,
    24,
    24,
    0,
    0,
    0,
    0,
    0,
    0,
    0,
    0,
    0,
    0,
    0,
    0,
    0,
    0,
    0,
    0,
    0,
    0,
    0,
    0,
    0,
    0,
    0,
    0,
    0,
    0,
    0,
    0,
    0,
    0,
    0,
    0,
    0,
    0,
    0,
    0,
    0,
    0,
    0,
    0,
    0,
    0,
    0,
    0,
    0,
    0,
    0,
    0,
    0,
    0,
    0,
    0,
    0,
    0,
    0,
    0,
    0,
    0,
    0,
    0,
    0,
    0,
    0,
    0,
    0,
    0,
    0,
    0,
    0,
    0,
    0,
    0,
    0,
    0,
    0,
    0,
    0,
    0,
    0,
    0,
    0,
    0,
    46,
    47,
    48,
    0,
    0,
    42,
    43,
    0,
    0,
    0,
    0,
    0,
    56,
    57,
    0,
    0,
    0,
    0,
    0,
    0,
    0,
    46,
    47,
    48,
    0,
    0,
    0,
    0,
    0,
    0,
    0,
    0,
    0,
    0,
    56,
    57,
    0,
    0,
    0,
    0,
    42,
    43,
    0,
    0,
    0,
    0,
    0,
    0,
    0,
    0,
    0,
    0,
    0,
    0,
    0,
    0,
    0,
    0,
    0,
    0,
    0,
    0,
    0,
    0,
    0,
    0,
    0,
    0,
    34,
    35,
    35,
    35,
    36,
    0,
    0,
    60,
    0,
    0,
    0,
    0,
    0,
    0,
    0,
    0,
    44,
    0,
    0,
    0,
    0,
    0,
    0,
    0,
    0,
    0,
    0,
    0,
    0,
    60,
    0,
    0,
    0,
    0,
    0,
    34,
    35,
    35,
    35,
    36,
    0,
    0,
    0,
    0,
    0,
    49,
    50,
    50,
    51,
    0,
    28,
    0,
    0,
    0,
    0,
    25,
    26,
    26,
    26,
    27,
    0,
    104,
    105,
    0,
    0,
    0,
    0,
    0,
    0,
    30,
    0,
    0,
    0,
    0,
    0,
    49,
    50,
    50,
    51,
    0,
    45,
    0,
    0,
    0,
    0,
    0,
    25,
    26,
    26,
    26,
    27,
    0,
    28,
    0,
    0,
    0,
    0,
    0,
    0,
    0,
    0,
    0,
    0,
    0,
    0,
    0,
    0,
    0,
    0,
    0,
    0,
    0,
    0,
    0,
    29,
    0,
    32,
    33,
    0,
    0,
    0,
    0,
    0,
    0,
    66,
    106,
    107,
    0,
    0,
    0,
    0,
    41,
    0,
    31,
    0,
    0,
    0,
    0,
    0,
    0,
    0,
    0,
    0,
    0,
    45,
    32,
    33,
    0,
    0,
    0,
    0,
    0,
    0,
    0,
    0,
    61,
    29,
    0,
    0,
    0,
    0,
    0,
    32,
    33,
    0,
    0,
    41,
    0,
    0,
    0,
    2,
    2,
    2,
    2,
    2,
    2,
    2,
    2,
    2,
    2,
    2,
    2,
    2,
    2,
    2,
    2,
    2,
    2,
    2,
    2,
    2,
    2,
    2,
    2,
    2,
    2,
    2,
    2,
    2,
    2,
    2,
    2,
    2,
    2,
    2,
    2,
    2,
    2,
    2,
    2,
    2,
    2,
    2,
    2,
    2,
    2,
    2,
    2,
    2,
    2,
    2,
    2,
    2,
    2,
    2,
    2,
    2,
    2,
    2,
    2,
    2,
    2,
    2,
    2,
    10,
    10,
    10,
    10,
    10,
    10,
    10,
    10,
    10,
    10,
    10,
    10,
    10,
    10,
    10,
    10,
    10,
    10,
    10,
    10,
    10,
    10,
    10,
    10,
    10,
    10,
    10,
    10,
    10,
    10,
    10,
    10,
    10,
    10,
    10,
    10,
    10,
    10,
    10,
    10,
    10,
    10,
    10,
    10,
    10,
    10,
    10,
    10,
    10,
    10,
    10,
    10,
    10,
    10,
    10,
    10,
    10,
    10,
    10,
    10,
    10,
    10,
    10,
    10,
    10,
    10,
    10,
    10,
    10,
    10,
    10,
    10,
    10,
    10,
    10,
    10,
    10,
    10,
    10,
    10,
    10,
    10,
    10,
    10,
    10,
    10,
    10,
    10,
    10,
    10,
    10,
    10,
    10,
    10,
    10,
    10,
    10,
    10,
    10,
    10,
    10,
    10,
    10,
    10,
    10,
    10,
    10,
    10,
    10,
    10,
    10,
    10,
    10,
    10,
    10,
    10,
    10,
    10,
    10,
    10,
    10,
    10,
    10,
    10,
    10,
    10,
    10,
    10
   ]
  },
  {
   "id": 7,
   "name": "decor",
   "type": "tilelayer",
   "width": 64,
   "height": 12,
   "x": 0,
   "y": 0,
   "opacity": 1,
   "visible": true,
   "data": [
    0,
    0,
    0,
    0,
    0,
    0,
    0,
    0,
    0,
    0,
    0,
    0,
    0,
    0,
    0,
    0,
    0,
    0,
    0,
    0,
    0,
    0,
    0,
    0,
    0,
    0,
    0,
    0,
    0,
    0,
    0,
    0,
    0,
    0,
    0,
    0,
    0,
    0,
    0,
    0,
    0,
    0,
    0,
    0,
    0,
    0,
    0,
    0,
    0,
    0,
    0,
    0,
    0,
    0,
    0,
    0,
    0,
    0,
    0,
    0,
    0,
    0,
    0,
    0,
    0,
    0,
    0,
    0,
    0,
    0,
    0,
    0,
    0,
    0,
    0,
    0,
    0,
    0,
    0,
    0,
    0,
    0,
    0,
    0,
    0,
    0,
    0,
    0,
    0,
    0,
    0,
    0,
    0,
    0,
    0,
    0,
    0,
    0,
    0,
    0,
    0,
    0,
    0,
    0,
    0,
    0,
    0,
    0,
    0,
    0,
    0,
    0,
    0,
    0,
    0,
    0,
    0,
    0,
    0,
    0,
    0,
    0,
    0,
    0,
    0,
    0,
    0,
    0,
    0,
    0,
    0,
    0,
    0,
    0,
    0,
    0,
    0,
    0,
    0,
    0,
    0,
    0,
    0,
    0,
    0,
    0,
    0,
    0,
    0,
    0,
    0,
    0,
    0,
    0,
    0,
    0,
    0,
    0,
    0,
    0,
    0,
    0,
    0,
    0,
    0,
    0,
    0,
    0,
    0,
    0,
    0,
    0,
    0,
    0,
    0,
    0,
    0,
    0,
    0,
    0,
    0,
    0,
    0,
    0,
    0,
    0,
    0,
    0,
    0,
    0,
    0,
    0,
    0,
    0,
    0,
    0,
    0,
    0,
    0,
    0,
    0,
    0,
    0,
    0,
    0,
    0,
    0,
    0,
    0,
    0,
    0,
    0,
    0,
    0,
    0,
    0,
    0,
    0,
    0,
    0,
    0,
    0,
    0,
    0,
    0,
    0,
    0,
    0,
    0,
    0,
    0,
    0,
    0,
    0,
    0,
    0,
    0,
    0,
    0,
    0,
    0,
    0,
    0,
    0,
    0,
    0,
    0,
    0,
    0,
    0,
    0,
    0,
    0,
    0,
    0,
    0,
    0,
    0,
    0,
    0,
    0,
    0,
    0,
    0,
    0,
    0,
    0,
    0,
    0,
    0,
    0,
    0,
    0,
    0,
    0,
    0,
    0,
    0,
    0,
    0,
    0,
    0,
    0,
    0,
    0,
    0,
    58,
    0,
    0,
    0,
    0,
    0,
    0,
    0,
    0,
    0,
    0,
    0,
    0,
    0,
    0,
    0,
    0,
    0,
    0,
    0,
    0,
    0,
    58,
    0,
    0,
    0,
    0,
    0,
    0,
    0,
    0,
    0,
    0,
    0,
    0,
    0,
    0,
    0,
    0,
    0,
    0,
    0,
    0,
    0,
    0,
    0,
    0,
    0,
    0,
    0,
    0,
    0,
    0,
    0,
    0,
    0,
    0,
    0,
    0,
    0,
    0,
    0,
    0,
    0,
    0,
    0,
    0,
    0,
    0,
    0,
    0,
    0,
    0,
    0,
    0,
    0,
    0,
    0,
    0,
    0,
    0,
    0,
    0,
    0,
    0,
    0,
    0,
    0,
    0,
    0,
    0,
    0,
    0,
    0,
    0,
    0,
    0,
    0,
    0,
    0,
    0,
    0,
    0,
    0,
    0,
    0,
    0,
    0,
    0,
    0,
    0,
    0,
    0,
    0,
    0,
    0,
    0,
    0,
    0,
    0,
    0,
    0,
    0,
    0,
    0,
    0,
    0,
    0,
    0,
    0,
    0,
    0,
    0,
    0,
    0,
    0,
    0,
    0,
    0,
    0,
    0,
    0,
    0,
    0,
    0,
    0,
    0,
    0,
    0,
    0,
    0,
    0,
    0,
    0,
    0,
    0,
    0,
    0,
    0,
    0,
    0,
    0,
    0,
    0,
    0,
    0,
    0,
    0,
    0,
    0,
    0,
    0,
    0,
    0,
    0,
    0,
    0,
    0,
    0,
    0,
    0,
    0,
    0,
    0,
    0,
    0,
    0,
    0,
    0,
    0,
    0,
    0,
    0,
    0,
    0,
    0,
    0,
    0,
    0,
    0,
    0,
    0,
    0,
    0,
    0,
    0,
    0,
    0,
    0,
    0,
    0,
    0,
    0,
    0,
    0,
    0,
    0,
    0,
    0,
    0,
    0,
    0,
    0,
    0,
    0,
    0,
    0,
    82,
    0,
    0,
    0,
    0,
    0,
    0,
    0,
    0,
    0,
    0,
    0,
    0,
    0,
    0,
    0,
    0,
    0,
    0,
    0,
    0,
    0,
    0,
    0,
    0,
    0,
    0,
    0,
    108,
    0,
    0,
    0,
    0,
    0,
    0,
    0,
    0,
    0,
    0,
    0,
    0,
    109,
    110,
    0,
    0,
    0,
    0,
    0,
    0,
    0,
    0,
    0,
    0,
    0,
    108,
    0,
    0,
    0,
    0,
    0,
    0,
    90,
    0,
    0,
    0,
    0,
    0,
    0,
    0,
    0,
    0,
    0,
    0,
    0,
    0,
    0,
    0,
    0,
    0,
    0,
    0,
    0,
    0,
    0,
    0,
    0,
    0,
    0,
    0,
    0,
    0,
    0,
    0,
    0,
    0,
    0,
    0,
    0,
    0,
    0,
    0,
    0,
    0,
    0,
    0,
    0,
    0,
    0,
    0,
    0,
    0,
    0,
    0,
    0,
    0,
    0,
    0,
    0,
    0,
    0,
    0,
    0,
    0,
    0,
    0,
    0,
    0,
    0,
    0,
    0,
    0,
    0,
    0,
    0,
    0,
    0,
    0,
    0,
    0,
    0,
    0,
    0,
    0,
    0,
    0,
    0,
    0,
    0,
    0,
    0,
    0,
    0,
    0,
    0,
    0,
    0,
    0,
    0,
    0,
    0,
    0,
    0,
    0,
    0,
    0,
    0,
    0,
    0,
    0,
    0,
    0,
    0,
    0,
    0,
    0,
    0,
    0,
    0,
    0,
    0,
    0,
    0,
    0,
    0,
    0,
    0,
    0,
    0,
    0,
    0,
    0,
    0,
    0,
    0,
    0,
    0,
    0,
    0,
    0,
    0,
    0,
    0,
    0,
    0,
    0,
    0,
    0,
    0,
    0,
    0,
    0,
    0,
    0,
    0,
    0,
    0,
    0,
    0,
    0,
    0,
    0,
    0,
    0,
    0,
    0,
    0,
    0,
    0,
    0,
    0,
    0,
    0,
    0,
    0,
    0,
    0,
    0,
    0,
    0,
    0,
    0,
    0,
    0,
    0,
    0,
    0,
    0,
    0,
    0,
    0,
    0,
    0,
    0,
    0,
    0
   ]
  },
  {
   "id": 8,
   "name": "foreground",
   "type": "tilelayer",
   "width": 64,
   "height": 12,
   "x": 0,
   "y": 0,
   "opacity": 1,
   "visible": true,
   "data": [
    0,
    0,
    0,
    0,
    0,
    0,
    0,
    0,
    0,
    0,
    0,
    0,
    0,
    0,
    0,
    0,
    0,
    0,
    0,
    0,
    0,
    0,
    0,
    0,
    0,
    0,
    0,
    0,
    0,
    0,
    0,
    0,
    0,
    0,
    0,
    0,
    0,
    0,
    0,
    0,
    0,
    0,
    0,
    0,
    0,
    0,
    0,
    0,
    0,
    0,
    0,
    0,
    0,
    0,
    0,
    0,
    0,
    0,
    0,
    0,
    0,
    0,
    0,
    0,
    0,
    0,
    0,
    0,
    0,
    0,
    0,
    0,
    0,
    0,
    0,
    0,
    0,
    0,
    0,
    0,
    0,
    0,
    0,
    0,
    0,
    0,
    0,
    0,
    0,
    0,
    0,
    0,
    0,
    0,
    0,
    0,
    0,
    0,
    0,
    0,
    0,
    0,
    0,
    0,
    0,
    0,
    0,
    0,
    0,
    0,
    0,
    0,
    0,
    0,
    0,
    0,
    0,
    0,
    0,
    0,
    0,
    0,
    0,
    0,
    0,
    0,
    0,
    0,
    0,
    0,
    0,
    0,
    0,
    0,
    0,
    0,
    0,
    0,
    0,
    0,
    0,
    0,
    0,
    0,
    0,
    0,
    0,
    0,
    0,
    0,
    0,
    0,
    0,
    0,
    0,
    0,
    0,
    0,
    0,
    0,
    0,
    0,
    0,
    0,
    0,
    0,
    0,
    0,
    0,
    0,
    0,
    0,
    0,
    0,
    0,
    0,
    0,
    0,
    0,
    0,
    0,
    0,
    0,
    0,
    0,
    0,
    0,
    0,
    0,
    0,
    0,
    0,
    0,
    0,
    0,
    0,
    0,
    0,
    0,
    0,
    0,
    0,
    0,
    0,
    0,
    0,
    0,
    0,
    0,
    0,
    0,
    0,
    0,
    0,
    0,
    0,
    0,
    0,
    0,
    0,
    0,
    0,
    0,
    0,
    0,
    0,
    0,
    0,
    0,
    0,
    0,
    0,
    0,
    0,
    0,
    0,
    0,
    0,
    0,
    0,
    0,
    0,
    0,
    0,
    0,
    0,
    0,
    0,
    0,
    0,
    0,
    0,
    0,
    0,
    0,
    0,
    0,
    0,
    0,
    0,
    0,
    0,
    0,
    0,
    0,
    0,
    0,
    0,
    0,
    0,
    0,
    0,
    0,
    0,
    0,
    0,
    0,
    0,
    0,
    0,
    0,
    0,
    0,
    0,
    0,
    0,
    0,
    0,
    0,
    0,
    0,
    0,
    0,
    0,
    0,
    0,
    0,
    0,
    0,
    0,
    0,
    0,
    0,
    0,
    0,
    0,
    0,
    0,
    0,
    0,
    0,
    0,
    0,
    0,
    0,
    0,
    0,
    0,
    0,
    0,
    0,
    0,
    0,
    74,
    0,
    0,
    74,
    0,
    0,
    0,
    0,
    0,
    0,
    0,
    0,
    0,
    0,
    0,
    0,
    0,
    0,
    0,
    0,
    0,
    0,
    0,
    0,
    0,
    0,
    0,
    0,
    0,
    0,
    74,
    0,
    0,
    74,
    0,
    0,
    0,
    0,
    0,
    0,
    0,
    0,
    0,
    0,
    0,
    0,
    0,
    0,
    0,
    0,
    0,
    0,
    0,
    0,
    0,
    0,
    0,
    0,
    0,
    0,
    0,
    0,
    0,
    101,
    76,
    0,
    0,
    76,
    0,
    0,
    0,
    0,
    0,
    0,
    0,
    0,
    0,
    0,
    0,
    0,
    0,
    0,
    0,
    0,
    0,
    0,
    0,
    0,
    0,
    0,
    0,
    0,
    0,
    0,
    101,
    0,
    0,
    76,
    101,
    0,
    0,
    0,
    0,
    0,
    0,
    0,
    0,
    0,
    0,
    0,
    0,
    0,
    0,
    0,
    0,
    0,
    0,
    0,
    0,
    0,
    0,
    0,
    0,
    111,
    0,
    0,
    0,
    102,
    0,
    0,
    0,
    0,
    0,
    0,
    0,
    97,
    98,
    0,
    0,
    0,
    0,
    0,
    0,
    0,
    0,
    0,
    0,
    37,
    38,
    38,
    38,
    39,
    0,
    0,
    0,
    0,
    0,
    0,
    102,
    0,
    0,
    0,
    102,
    0,
    97,
    98,
    0,
    0,
    0,
    0,
    0,
    0,
    0,
    0,
    0,
    0,
    0,
    0,
    0,
    0,
    0,
    97,
    98,
    38,
    38,
    38,
    39,
    112,
    0,
    0,
    0,
    103,
    0,
    0,
    0,
    0,
    0,
    0,
    0,
    99,
    100,
    0,
    72,
    72,
    72,
    72,
    73,
    0,
    0,
    0,
    0,
    37,
    38,
    38,
    38,
    39,
    0,
    0,
    0,
    0,
    0,
    0,
    103,
    0,
    0,
    0,
    103,
    0,
    99,
    100,
    0,
    0,
    0,
    72,
    72,
    72,
    72,
    73,
    0,
    0,
    0,
    0,
    0,
    0,
    0,
    99,
    100,
    38,
    38,
    38,
    39,
    113,
    0,
    0,
    0,
    0,
    0,
    0,
    0,
    0,
    0,
    0,
    0,
    0,
    0,
    0,
    0,
    0,
    0,
    0,
    0,
    0,
    0,
    0,
    0,
    0,
    0,
    0,
    0,
    0,
    0,
    0,
    0,
    0,
    0,
    0,
    0,
    0,
    0,
    0,
    0,
    0,
    0,
    0,
    0,
    0,
    0,
    0,
    0,
    0,
    0,
    0,
    0,
    0,
    0,
    0,
    0,
    0,
    0,
    0,
    0,
    0,
    0,
    0,
    0,
    0,
    0,
    0,
    0,
    0,
    0,
    0,
    0,
    0,
    0,
    0,
    0,
    0,
    0,
    0,
    0,
    0,
    0,
    0,
    0,
    0,
    0,
    0,
    0,
    0,
    0,
    0,
    0,
    0,
    0,
    0,
    0,
    0,
    0,
    0,
    0,
    0,
    0,
    0,
    0,
    0,
    0,
    0,
    0,
    0,
    0,
    0,
    0,
    0,
    0,
    0,
    0,
    0,
    0,
    0,
    0,
    0,
    0,
    0,
    0,
    0,
    0,
    0,
    0,
    0,
    0,
    0,
    0,
    0,
    0,
    0,
    0,
    0,
    0,
    0,
    0,
    0,
    0,
    0,
    0,
    0,
    0,
    0,
    0,
    0,
    0,
    0,
    0,
    0,
    0,
    0,
    0,
    0,
    0,
    0,
    0,
    0,
    0,
    0,
    0,
    0,
    0,
    0,
    0,
    0,
    0,
    0,
    0,
    0,
    0,
    0,
    0,
    0,
    0,
    0,
    0,
    0,
    0,
    0,
    0,
    0,
    0,
    0,
    0,
    0,
    0,
    0,
    0,
    0,
    0
   ]
  },
  {
   "id": 9,
   "name": "entities",
   "type": "objectgroup",
   "draworder": "topdown",
   "opacity": 1,
   "visible": true,
   "x": 0,
   "y": 0,
   "objects": [
    {
     "id": 1,
     "name": "player_spawn",
     "type": "hero_kid",
     "x": 48,
     "y": 257,
     "width": 32,
     "height": 32,
     "rotation": 0,
     "visible": true
    },
    {
     "id": 2,
     "name": "football",
     "type": "toy",
     "x": 168,
     "y": 206,
     "width": 16,
     "height": 16,
     "rotation": 0,
     "visible": true
    },
    {
     "id": 3,
     "name": "lego",
     "type": "toy",
     "x": 360,
     "y": 238,
     "width": 16,
     "height": 16,
     "rotation": 0,
     "visible": true
    },
    {
     "id": 4,
     "name": "teddy",
     "type": "toy",
     "x": 456,
     "y": 270,
     "width": 16,
     "height": 16,
     "rotation": 0,
     "visible": true
    },
    {
     "id": 5,
     "name": "car",
     "type": "toy",
     "x": 520,
     "y": 270,
     "width": 16,
     "height": 16,
     "rotation": 0,
     "visible": true
    },
    {
     "id": 6,
     "name": "stick",
     "type": "toy",
     "x": 616,
     "y": 142,
     "width": 16,
     "height": 16,
     "rotation": 0,
     "visible": true
    },
    {
     "id": 7,
     "name": "crayons",
     "type": "toy",
     "x": 744,
     "y": 270,
     "width": 16,
     "height": 16,
     "rotation": 0,
     "visible": true
    },
    {
     "id": 8,
     "name": "markers",
     "type": "toy",
     "x": 808,
     "y": 238,
     "width": 16,
     "height": 16,
     "rotation": 0,
     "visible": true
    },
    {
     "id": 9,
     "name": "pencils",
     "type": "toy",
     "x": 752,
     "y": 142,
     "width": 16,
     "height": 16,
     "rotation": 0,
     "visible": true
    },
    {
     "id": 10,
     "name": "chessboard",
     "type": "toy",
     "x": 840,
     "y": 174,
     "width": 16,
     "height": 16,
     "rotation": 0,
     "visible": true
    },
    {
     "id": 11,
     "name": "cards",
     "type": "toy",
     "x": 968,
     "y": 142,
     "width": 16,
     "height": 16,
     "rotation": 0,
     "visible": true
    },
    {
     "id": 12,
     "name": "uno",
     "type": "toy",
     "x": 1000,
     "y": 142,
     "width": 16,
     "height": 16,
     "rotation": 0,
     "visible": true
    },
    {
     "id": 13,
     "name": "plush_bunny",
     "type": "toy",
     "x": 1096,
     "y": 206,
     "width": 16,
     "height": 16,
     "rotation": 0,
     "visible": true
    },
    {
     "id": 14,
     "name": "plush_dino",
     "type": "toy",
     "x": 1224,
     "y": 174,
     "width": 16,
     "height": 16,
     "rotation": 0,
     "visible": true
    },
    {
     "id": 15,
     "name": "plush_cat",
     "type": "toy",
     "x": 1288,
     "y": 142,
     "width": 16,
     "height": 16,
     "rotation": 0,
     "visible": true
    },
    {
     "id": 16,
     "name": "sword",
     "type": "toy",
     "x": 1320,
     "y": 142,
     "width": 16,
     "height": 16,
     "rotation": 0,
     "visible": true
    },
    {
     "id": 17,
     "name": "football",
     "type": "toy",
     "x": 1448,
     "y": 270,
     "width": 16,
     "height": 16,
     "rotation": 0,
     "visible": true
    },
    {
     "id": 18,
     "name": "lego",
     "type": "toy",
     "x": 1512,
     "y": 270,
     "width": 16,
     "height": 16,
     "rotation": 0,
     "visible": true
    },
    {
     "id": 19,
     "name": "teddy",
     "type": "toy",
     "x": 1704,
     "y": 142,
     "width": 16,
     "height": 16,
     "rotation": 0,
     "visible": true
    },
    {
     "id": 20,
     "name": "car",
     "type": "toy",
     "x": 1928,
     "y": 270,
     "width": 16,
     "height": 16,
     "rotation": 0,
     "visible": true
    },
    {
     "id": 21,
     "name": "stick",
     "type": "toy",
     "x": 1904,
     "y": 142,
     "width": 16,
     "height": 16,
     "rotation": 0,
     "visible": true
    },
    {
     "id": 22,
     "name": "crayons",
     "type": "toy",
     "x": 104,
     "y": 270,
     "width": 16,
     "height": 16,
     "rotation": 0,
     "visible": true
    },
    {
     "id": 23,
     "name": "markers",
     "type": "toy",
     "x": 232,
     "y": 270,
     "width": 16,
     "height": 16,
     "rotation": 0,
     "visible": true
    },
    {
     "id": 24,
     "name": "pencils",
     "type": "toy",
     "x": 392,
     "y": 270,
     "width": 16,
     "height": 16,
     "rotation": 0,
     "visible": true
    },
    {
     "id": 25,
     "name": "chessboard",
     "type": "toy",
     "x": 648,
     "y": 270,
     "width": 16,
     "height": 16,
     "rotation": 0,
     "visible": true
    },
    {
     "id": 26,
     "name": "cards",
     "type": "toy",
     "x": 904,
     "y": 270,
     "width": 16,
     "height": 16,
     "rotation": 0,
     "visible": true
    },
    {
     "id": 27,
     "name": "uno",
     "type": "toy",
     "x": 1032,
     "y": 270,
     "width": 16,
     "height": 16,
     "rotation": 0,
     "visible": true
    },
    {
     "id": 28,
     "name": "plush_bunny",
     "type": "toy",
     "x": 1160,
     "y": 270,
     "width": 16,
     "height": 16,
     "rotation": 0,
     "visible": true
    },
    {
     "id": 29,
     "name": "plush_dino",
     "type": "toy",
     "x": 1384,
     "y": 270,
     "width": 16,
     "height": 16,
     "rotation": 0,
     "visible": true
    },
    {
     "id": 30,
     "name": "plush_cat",
     "type": "toy",
     "x": 1576,
     "y": 270,
     "width": 16,
     "height": 16,
     "rotation": 0,
     "visible": true
    },
    {
     "id": 31,
     "name": "sword",
     "type": "toy",
     "x": 1736,
     "y": 270,
     "width": 16,
     "height": 16,
     "rotation": 0,
     "visible": true
    },
    {
     "id": 32,
     "name": "marija",
     "type": "marija_night",
     "x": 1280,
     "y": 257,
     "width": 32,
     "height": 32,
     "rotation": 0,
     "visible": true
    }
   ]
  }
 ]
}